X: 2
T:Blew Cap
M:6/8
L:1/8
Q:110
R:Jig
H:Refers to the Scottish bonnet
K:F
F|BBf bbd|c2B G2d|BBf ddf|c>fe f2:|
f|ddB ccG|F2d _e2g|ffd fga|bfd c2f|ddB ccG|F2d _e2g|ffd fga|bfd c2:|

